src/amo/components/CategoryIcon/img/bookmarks.svg

<svg xmlns="http://www.w3.org/2000/svg" width="64" height="64" viewBox="0 0 64 64">
  <g class="two" fill="#0F1126">
    <path d="M24.9452862,20.8295721 C24.1756209,22.3094104 22.7579304,23.3439303 21.1138367,23.6254651 L6.50334387,26.1273351 L16.8779735,36.8201284 C18.0308643,38.0083755 18.5665412,39.6646584 18.3278229,41.3029813 L16.1377243,56.3336153 L29.6165333,49.5946615 C31.118808,48.8435743 32.887125,48.8440296 34.3890127,49.5958903 L47.8689832,56.3441099 L45.6753714,41.3036991 C45.4363967,39.6651786 45.9720333,38.0086018 47.1250718,36.8201741 L58.9780938,24.6033717 C58.6914763,24.8999053 58.5836194,25.3791097 58.7344196,25.8107376 C58.8630181,26.1792113 59.1394525,26.4090822 59.4466821,26.4629772 L42.8885694,23.625348 C41.24436,23.3435733 39.826703,22.3087057 39.0572808,20.8285668 L32.0033762,7.25895734 L24.9452862,20.8295721 Z M63.7693105,24.0516703 C64.2883979,25.5374284 63.9169251,27.1763811 62.8014971,28.3217006 L50.9528697,40.5339873 L53.423021,57.4704802 C53.6548663,59.0558559 52.9421779,60.6323626 51.5768811,61.5542451 C50.2115844,62.4761275 48.4230706,62.5884949 46.9439356,61.8453203 L32.0015448,54.3650036 L17.0632035,61.8336748 C15.5840685,62.5768494 13.7955547,62.464482 12.430258,61.5425995 C11.0649612,60.6207171 10.3522728,59.0442104 10.5841181,57.4588347 L13.05022,40.5339873 L1.19754312,28.3178187 C0.0824291627,27.1720966 -0.288477837,25.5329168 0.231218417,24.0472605 C0.750914671,22.5616042 2.07771798,21.4681621 3.68794158,21.1985137 L20.2136588,18.3686481 L28.0169073,3.36531438 C28.7704243,1.91600411 30.3143201,1 32.0035696,1 C33.692819,1 35.2367148,1.91600411 35.9902318,3.36531438 L43.7894309,18.3686481 L60.3475435,21.2062774 C61.9436267,21.4864997 63.2544898,22.5765566 63.7693105,24.0516703 Z"/>
  </g>
</svg>

<svg xmlns="http://www.w3.org/2000/svg" width="64" height="64"><path d="M24.945 20.83a5.333 5.333 0 0 1-3.831 2.795l-14.61 2.502L16.877 36.82a5.333 5.333 0 0 1 1.45 4.483l-2.19 15.03 13.479-6.738a5.333 5.333 0 0 1 4.772 0l13.48 6.75-2.194-15.041a5.333 5.333 0 0 1 1.45-4.484l11.853-12.217c-.287.297-.394.776-.244 1.208.129.368.405.598.713.652l-16.558-2.838a5.333 5.333 0 0 1-3.832-2.796l-7.054-13.57-7.058 13.57Zm38.824 3.222c.52 1.485.148 3.124-.968 4.27L50.953 40.534l2.47 16.936c.232 1.586-.48 3.162-1.846 4.084a4.617 4.617 0 0 1-4.633.291l-14.942-7.48-14.939 7.469a4.617 4.617 0 0 1-4.633-.291c-1.365-.922-2.078-2.499-1.846-4.084l2.466-16.925L1.198 28.318C.082 27.172-.288 25.533.23 24.048c.52-1.486 1.847-2.58 3.457-2.85l16.526-2.83 7.803-15.003C28.77 1.916 30.314 1 32.004 1c1.689 0 3.233.916 3.986 2.365l7.8 15.004 16.558 2.837c1.596.28 2.906 1.37 3.421 2.846Z" class="two" fill="#0F1126"/></svg>
